!!!OTL: Morgenlied im Freien.
!!!OTL-incipit:DER MEERESFLUTH MIT PURPURGLUTH
!!!COM: C. L. Helwig
!!!ARE: Europa, Mitteleuropa, Deutschland
!!!SCT: F0355
!!!TXL: @@DE
!!!YEM: Copyright 1995, estate of Helmut Schaffrath.
**kern	**text
*ICvox	*
*clefG2	*
*M6/4	*
*k[f#]	*
*G:	*
!LO:TX:a:t=Gemeſſen.	!
!LO:TX:a:t=P:only the highest voice encoded:problem	!
{4d	1._Der
=1	=1
2g	Meeres-
4a	.
2b/	-fluth
4a	mit
=2	=2
2cc/	Purpur-
4b/	.
2a}	-gluth
{4a	er-
=3	=3
(4b	-ſteigt
4cc#)	.
4dd	der
(<4ee/	Son-
4gg/)	.
4cc#/	-ne
=4	=4
2dd/	Strahl;
4r	.
2r}	.
{4d	der
=5	=5
2a	Ne-
4b/	-bel
2cc/	ſinkt
4a	und
=6	=6
2dd/	ſil-
4cc/	-bern
2b/}	blinkt
{4ee/	im
=7	=7
(>4dd/	Per-
4gg/)	.
4b/	-lenſchmuck
(4dd/	.
4cc/)	.
4a	das
=8	=8
2g	Thal.
4r	.
2r}	.
==	==
!!!AGN: Jugend - Lied, Tageszeiten, Morgen
!!!ONB: ESAC (Essen Associative Code) Database: FINK
!!!AMT: compound duple
!!!AIN: vox
!!!EED: Helmut Schaffrath
!!!EEV: 1.0
!!Text: Vornemann
!!!RDF**kern: > = above
!!!GTL: Erbauungslieder
!!Text: Bornemann
!!!source: Musikalischer Hausschatz der Deutschen. Eine Sammlung von über 1000 Liedern und Gesängen mit Singstimmen und Klavierbegleitung. Leipzig, Litterarisches Verlags-Haus.
!!!page: 210
!!!URL-scan: https://www.digitale-sammlungen.de/en/view/bsb11144622?page=641
!!!ENC: Anna Maria Matuszewska
!!!EEV: 2024/08/08
*-	*-
